public/favicon.svg

<svg width="396" height="287" viewBox="0 0 396 287" fill="none" xmlns="http://www.w3.org/2000/svg">
<g clip-path="url(#clip0_11_11)">
<rect width="396" height="287" fill="white"/>
<path fill-rule="evenodd" clip-rule="evenodd" d="M158.467 0.774228C193.303 4.40505 225.61 20.6382 249.306 46.4177L227.312 66.6128C208.545 46.1959 182.959 33.3396 155.369 30.4641C127.779 27.5885 100.089 34.8921 77.512 51C54.9346 67.1078 39.0271 90.9087 32.784 117.922C26.541 144.936 30.3931 173.299 43.6151 197.671C56.8371 222.044 78.5171 240.745 104.574 250.255C130.63 259.764 159.266 259.426 185.091 249.304C201.985 242.682 216.914 232.171 228.758 218.784L259.664 188.622L288.099 160.871L342.476 108.409L362.447 130.97L290.034 200.848L261.688 228.512L249.185 240.714C234.554 256.591 216.411 269.091 195.995 277.094C163.387 289.875 127.23 290.302 94.3295 278.295C61.4289 266.287 34.0546 242.674 17.3596 211.9C0.664738 181.125 -4.19911 145.313 3.68372 111.204C11.5666 77.0951 31.6523 47.0427 60.1599 26.704C88.6674 6.36534 123.63 -2.8566 158.467 0.774228Z" fill="#3DDDA3"/>
<path d="M396 79.7255L378.528 149.136L324.942 88.6023L396 79.7255Z" fill="#3DDDA3"/>
<path d="M287.124 140.746C286.452 105.745 273.002 72.1973 249.306 46.4177L227.312 66.6128C246.079 87.0297 256.731 113.599 257.263 141.319L259.664 188.622L288.099 160.871L287.124 140.746Z" fill="url(#paint0_linear_11_11)"/>
<path d="M261.688 286.932H291.225L290.034 200.848L261.688 228.512V286.932Z" fill="url(#paint1_linear_11_11)"/>
</g>
<defs>
<linearGradient id="paint0_linear_11_11" x1="243.161" y1="147.276" x2="273.634" y2="193.686" gradientUnits="userSpaceOnUse">
<stop stop-color="#3DDDA3"/>
<stop offset="1" stop-color="#217758"/>
</linearGradient>
<linearGradient id="paint1_linear_11_11" x1="287.421" y1="261.105" x2="273.671" y2="197.444" gradientUnits="userSpaceOnUse">
<stop stop-color="#3DDDA3"/>
<stop offset="1" stop-color="#217758"/>
</linearGradient>
<clipPath id="clip0_11_11">
<rect width="396" height="287" fill="white"/>
</clipPath>
</defs>
</svg>

935 bytes → 731 bytes 78.18%
<svg width="396" height="287" fill="none" xmlns="http://www.w3.org/2000/svg"><g clip-path="url(#a)"><path fill-rule="evenodd" clip-rule="evenodd" d="M158.467.774a143.603 143.603 0 0 1 90.839 45.644l-21.994 20.195A113.752 113.752 0 0 0 77.512 51a113.646 113.646 0 0 0-44.728 66.922 113.596 113.596 0 0 0 10.831 79.749 113.692 113.692 0 0 0 60.959 52.584 113.77 113.77 0 0 0 80.517-.951 113.705 113.705 0 0 0 43.667-30.52l30.906-30.162 28.435-27.751 54.377-52.462 19.971 22.561-72.413 69.878-28.346 27.664-12.503 12.202a143.581 143.581 0 0 1-53.19 36.38 143.648 143.648 0 0 1-101.666 1.201A143.558 143.558 0 0 1 17.36 211.9 143.435 143.435 0 0 1 3.685 111.204a143.496 143.496 0 0 1 56.476-84.5A143.632 143.632 0 0 1 158.467.774Z" fill="#3DDDA3"/><path d="m396 79.725-17.472 69.411-53.586-60.534L396 79.725Z" fill="#3DDDA3"/><path d="M287.124 140.746a143.457 143.457 0 0 0-37.818-94.328l-21.994 20.195a113.613 113.613 0 0 1 29.951 74.706l2.401 47.303 28.435-27.751-.975-20.125Z" fill="url(#b)"/><path d="M261.688 286.932h29.537l-1.191-86.084-28.346 27.664v58.42Z" fill="url(#c)"/></g><defs><linearGradient id="b" x1="243.161" y1="147.276" x2="273.634" y2="193.686" gradientUnits="userSpaceOnUse"><stop stop-color="#3DDDA3"/><stop offset="1" stop-color="#217758"/></linearGradient><linearGradient id="c" x1="287.421" y1="261.105" x2="273.671" y2="197.444" gradientUnits="userSpaceOnUse"><stop stop-color="#3DDDA3"/><stop offset="1" stop-color="#217758"/></linearGradient><clipPath id="a"><path fill="#fff" d="M0 0h396v287H0z"/></clipPath></defs></svg>
